X:1
T:So Nimm denn Meine Hände, 74.74 D
T:So Nimm denn Meine Hände, 74.74 D
T:Friedrich Silcher, 1842
T:Public Domain Courtesy of the Cyber Hymnal™
C:Friedrich Silcher, 1842
Z:Public Domain
Z:Courtesy of the Cyber Hymnal™
%%score ( 1 2 ) ( 3 4 )
L:1/8
Q:1/4=115
M:4/4
K:D
V:1 treble 
V:2 treble 
V:3 bass 
V:4 bass 
V:1
|: [DA]2 | [DB]2 [DA]2 G2 [DF]2 | [DF]4 [CE]2 [DF]2 | [DG]4 [EA]4 | [DF]6 :| [DF]2 | %6
 E2 [EA]2 [E^G]2 [EB]2 | A3 B [Ec]2 [Dd]2 | c4 z2 D2 x2 | [CA]6 [CA]2 | [Dd]2 (cB) [EA]2 [DA]2 | %11
 [DB]4 [DA]2 [CG]2 | F2 z2 z2 E2 x4 | D6 |] %14
V:2
|: x2 | x4 (DC) x2 | x8 | x8 | x6 :| x2 | x8 | E4 x4 | E6 B4 | x8 | x2 E2 x4 | x8 | D4 G4 C4 | %13
 D6 |] %14
V:3
|: [D,F,]2 | G,2 [F,A,]2 [E,A,]2 [D,A,]2 | ([F,,A,]2 [^G,,B,]2) [A,,C]2 [D,A,]2 | %3
 [B,,B,]4 [C,A,]4 | [D,A,]6 :| [D,A,]2 | [C,A,]2 [A,,C]2 [E,B,]2 [D,^G,]2 | %7
 [C,A,]3 [B,,^G,] [A,,A,]2 [B,,F,]2 | A,4 [E,^G,]4 x2 | [A,,A,]6 [G,A,]2 | %10
 [F,A,]2 [E,G,]2 [C,A,]2 [D,F,]2 | G,4 [D,F,]2 [E,G,]2 | [D,A,]2 [B,,G,]2 (A,2 G,2) x4 | [D,F,]6 |] %14
V:4
|: x2 | x8 | x8 | x8 | x6 :| x2 | x8 | x8 | C,2 D,2 x6 | x8 | x8 | (G,,2 B,,2) x4 | x4 A,,4 x4 | %13
 x6 |] %14

